src/assets/fleet-icons/full-screen-dark.svg

<svg width="20" height="20" viewBox="0 0 20 20" fill="none" xmlns="http://www.w3.org/2000/svg">
<path d="M3.95837 5.62504V14.375C3.95837 15.2955 4.70457 16.0417 5.62504 16.0417H14.375C15.2955 16.0417 16.0417 15.2955 16.0417 14.375V5.62504C16.0417 4.70457 15.2955 3.95837 14.375 3.95837H5.62504C4.70457 3.95837 3.95837 4.70457 3.95837 5.62504Z" stroke="#101010" stroke-linecap="round" stroke-linejoin="round"/>
<path d="M10.2084 9.79163L6.45837 13.5416" stroke="#101010" stroke-linecap="round" stroke-linejoin="round"/>
<path d="M9.79163 10.2084L13.5416 6.45837" stroke="#101010" stroke-linecap="round" stroke-linejoin="round"/>
<path d="M6.45837 10.625V13.5417H9.37504" stroke="#101010" stroke-linecap="round" stroke-linejoin="round"/>
<path d="M13.5417 9.37504V6.45837H10.625" stroke="#101010" stroke-linecap="round" stroke-linejoin="round"/>
</svg>

<svg width="20" height="20" fill="none" xmlns="http://www.w3.org/2000/svg">
    <path
        d="M3.958 5.625v8.75c0 .92.747 1.667 1.667 1.667h8.75c.92 0 1.667-.747 1.667-1.667v-8.75c0-.92-.747-1.667-1.667-1.667h-8.75c-.92 0-1.667.747-1.667 1.667Zm6.25 4.167-3.75 3.75m3.334-3.334 3.75-3.75"
        stroke="#101010" stroke-linecap="round" stroke-linejoin="round" />
    <path d="M6.458 10.625v2.917h2.917m4.167-4.167V6.458h-2.917" stroke="#101010" stroke-linecap="round"
        stroke-linejoin="round" />
</svg>
